X: 26426
T: Merry Sisters, The
R: reel
M: 4/4
K: Adorian
eA A2 egfd|eA A2 gd (3Bcd|eA A2 egfd|BG G2 DGBd|
eA A2 gA A2|eA A2 gd (3Bcd|eA A2 egfd|BG G2 DGBd||
eaaf g2 fg|eaag ed (3Bcd|eaaf g2 fg|egde gdBG|
eaaf g2 fg|egab c'bag|eaaf g2 fg|egde gdBG||
egfg egdg|eA A2 eA (3Bcd|egfg egdc|BG G2 DGBd|
egfg egdg|eA A2 eABA|DG (3Bcd g3a|(3bag (3agf g2 fg||

